gnome-shell/src/keyboard-layout-filled-symbolic.svg

<svg version="1.1" viewBox="0 0 16 16" xmlns="http://www.w3.org/2000/svg">
 <g transform="translate(0,2e-5)" fill="#808080" fill-rule="evenodd">
  <path d="m3.5 1c-0.277 0-0.5 0-0.5 0.75v13.25h1v-5.9883c5.2698 0.11521 2.2146 1.9883 9 1.9883v-7c-6.7854 0-3.7302-1.8731-9-1.9883v-0.26172c0-0.75-0.223-0.75-0.5-0.75z"/>
 </g>
</svg>

<?xml version="1.0" encoding="UTF-8" standalone="no"?>
<svg
   width="16"
   height="16"
   version="1.1"
   id="svg10"
   sodipodi:docname="keyboard-layout-filled-symbolic.svg"
   inkscape:version="1.1 (c68e22c387, 2021-05-23)"
   xmlns:inkscape="http://www.inkscape.org/namespaces/inkscape"
   xmlns:sodipodi="http://sodipodi.sourceforge.net/DTD/sodipodi-0.dtd"
   xmlns="http://www.w3.org/2000/svg"
   xmlns:svg="http://www.w3.org/2000/svg">
  <defs
     id="defs14" />
  <sodipodi:namedview
     id="namedview12"
     pagecolor="#ffffff"
     bordercolor="#666666"
     borderopacity="1.0"
     inkscape:pageshadow="2"
     inkscape:pageopacity="0.0"
     inkscape:pagecheckerboard="0"
     showgrid="false"
     inkscape:zoom="16.625"
     inkscape:cx="8"
     inkscape:cy="8.0300752"
     inkscape:window-width="1366"
     inkscape:window-height="704"
     inkscape:window-x="0"
     inkscape:window-y="27"
     inkscape:window-maximized="1"
     inkscape:current-layer="svg10" />
  <g
     fill="#808080"
     fill-rule="evenodd"
     id="g4"
     transform="translate(0,2e-5)">
    <path
       d="M 3.5,1 C 3.223,1 3,1 3,1.75 V 15 H 4 V 9.0117 C 9.2698,9.12691 6.2146,11 13,11 V 4 C 6.2146,4 9.2698,2.1269 4,2.0117 V 1.74998 c 0,-0.75 -0.223,-0.75 -0.5,-0.75 z"
       id="path2" />
  </g>
</svg>
